src/assets/img/icons/wordpress.svg

<svg width="16" height="16" viewBox="0 0 16 16" fill="none" xmlns="http://www.w3.org/2000/svg">
<g clip-path="url(#clip0_1312_1110)">
<path d="M8 0C3.59062 0 0 3.5875 0 8C0 12.4094 3.59062 16 8 16C12.4094 16 16 12.4094 16 8C16 3.5875 12.4094 0 8 0ZM0.80625 8C0.80625 6.95937 1.02813 5.96875 1.42813 5.075L4.85938 14.475C2.45937 13.3063 0.80625 10.8469 0.80625 8ZM8 15.1938C7.29375 15.1938 6.6125 15.0906 5.96875 14.9L8.125 8.62813L10.3375 14.6875C10.3531 14.725 10.3687 14.7563 10.3875 14.7875C9.64062 15.0469 8.8375 15.1938 8 15.1938ZM8.99063 4.63125C9.42188 4.60938 9.8125 4.5625 9.8125 4.5625C10.2 4.51562 10.1531 3.94688 9.76562 3.96875C9.76562 3.96875 8.6 4.05937 7.85 4.05937C7.14375 4.05937 5.95625 3.96875 5.95625 3.96875C5.56875 3.94688 5.525 4.54063 5.9125 4.5625C5.9125 4.5625 6.28125 4.60938 6.66563 4.63125L7.78438 7.70312L6.20937 12.4219L3.59375 4.62813C4.025 4.60625 4.41563 4.55937 4.41563 4.55937C4.80312 4.5125 4.75625 3.94375 4.36875 3.96563C4.36875 3.96563 3.20312 4.05625 2.45312 4.05625C2.31875 4.05625 2.15937 4.05312 1.9875 4.04688C3.27812 2.09687 5.4875 0.80625 8 0.80625C9.87187 0.80625 11.5781 1.52187 12.8594 2.69375C12.8281 2.69062 12.7969 2.6875 12.7656 2.6875C12.0594 2.6875 11.5594 3.30312 11.5594 3.96563C11.5594 4.55937 11.9 5.05937 12.2656 5.65312C12.5406 6.13125 12.8594 6.74687 12.8594 7.6375C12.8594 8.25313 12.625 8.96562 12.3094 9.9625L11.5938 12.3594L8.99063 4.63125ZM14.3125 4.55C14.875 5.575 15.1938 6.75 15.1938 8.00313C15.1938 10.6562 13.7563 12.975 11.6156 14.2188L13.8125 7.8625C14.2219 6.8375 14.3625 6.01875 14.3625 5.28438C14.3625 5.02188 14.3469 4.77813 14.3125 4.55Z" fill="#0B0B0C"/>
</g>
<defs>
<clipPath id="clip0_1312_1110">
<rect width="16" height="16" fill="white"/>
</clipPath>
</defs>
</svg>

<svg width="16" height="16" fill="none" xmlns="http://www.w3.org/2000/svg"><path d="M8 0C3.59 0 0 3.587 0 8c0 4.41 3.59 8 8 8s8-3.59 8-8c0-4.412-3.59-8-8-8zM.806 8c0-1.04.222-2.031.622-2.925l3.431 9.4A7.198 7.198 0 01.806 8zM8 15.194a7.142 7.142 0 01-2.031-.294l2.156-6.272 2.213 6.06a.734.734 0 00.05.1A7.277 7.277 0 018 15.194zM8.99 4.63c.432-.022.822-.069.822-.069.388-.046.341-.615-.046-.593 0 0-1.166.09-1.916.09-.706 0-1.894-.09-1.894-.09-.387-.022-.431.572-.044.594 0 0 .37.046.754.068l1.118 3.072-1.575 4.719-2.615-7.794c.431-.022.822-.069.822-.069.387-.046.34-.615-.047-.593 0 0-1.166.09-1.916.09-.134 0-.294-.003-.465-.01a7.201 7.201 0 0110.871-1.352.947.947 0 00-.093-.006c-.707 0-1.207.615-1.207 1.278 0 .593.341 1.093.707 1.687.275.478.593 1.094.593 1.985 0 .615-.234 1.328-.55 2.325l-.715 2.396L8.99 4.631zm5.322-.081a7.15 7.15 0 01.882 3.453 7.18 7.18 0 01-3.578 6.216l2.197-6.356c.409-1.026.55-1.844.55-2.579 0-.262-.016-.506-.05-.734z" fill="#0B0B0C"/></svg>
